X:1
T:For the Beauty of the Earth
T:Text: Folliott S. Pierpont, 1864, alt. Tune: Conrad Kocher, 1838; adapt. William H. Monk, 1861
T:77 77 77 DIX www.hymnary.org/text/for_the_beauty_of_the_earth
T:For the Beauty of the Earth
T:This hymn is in the public domain. You may freely use this score for personal and congregational worship. If you reproduce the score, please credit Hymnary.org as the source. 
T:This hymn is in the public domain. You may freely use this score for personal and congregational worship. If you reproduce the score, please credit Hymnary.org as the source. 
Z:This hymn is in the public domain. You may freely use this score for personal and congregational worship. If you reproduce the score, please credit Hymnary.org as the source.
%%score ( 1 2 ) ( 3 4 )
L:1/8
M:4/4
K:G
V:1 treble nm="SOPRANO ALTO" snm="S. A."
V:2 treble 
V:3 bass nm="TENOR BASS" snm="T. B."
V:4 bass 
V:1
"^1""^2""^3""^4" G2 FG | A2 G2 c2 c2 | B4 E2 F2 | G2 E2 D2 D2 | D4 | G2 FG | A2 G2 c2 c2 | %7
w: For the *|beau- ty of the|earth, for the|glo- ry of the|skies,|for the *|love which from our|
w: For the *|won- der of each|hour of the|day and of the|night,|hill and *|vale and tree and|
w: For the *|joy of hu- man|love, broth- er,|sis- ter, pa- rent,|child,|friends on *|earth, and friends a-|
w: For your- *|self, best gift di-|vine, to the|world so free- ly|given,|a- gent *|of God's grand de-|
 B4 E2 F2 | G2 E2 D2 D2 | D4 |1"^Refrain" B2 A2 | G2 B2 d3 c | B4 E2 F2 | G2 c2 B2 A2 | G4 x4 |] %15
w: birth o- ver|and a- round us|lies.|Christ, our|Lord, to you we|raise this, our|hymn of grate- ful|praise.|
w: flower, sun and|moon and stars of|light,||||||
w: bove, for all|gen- tle thoughts and|mild,||||||
w: sign: peace on|earth and joy in|heaven.||||||
V:2
 D2 D2 | D2 D2 C2 D2 | D4 E2 D2 | D2 C2 B,2 A,2 | B,4 | D2 D2 | D2 D2 C2 D2 | D4 E2 D2 | %8
 D2 C2 B,2 A,2 | B,4 |1 D2 D2 | D2 D2 D2 D2 | D4 E2 D2 | D2 C2 D3 C | B,4 x4 |] %15
V:3
 B,2 CB, | A,2 B,2 G,2 A,2 | G,4 G,2 A,2 | G,2 G,2 G,2 F,2 | G,4 | B,2 CB, | A,2 B,2 G,2 A,2 | %7
 G,4 G,2 A,2 | G,2 G,2 G,2 F,2 | G,4 |1 G,2 DC | B,2 G,2 A,2 F,2 | G,4 G,2 A,2 | G,2 G,2 G,2 F,2 | %14
 G,4 x4 |] %15
V:4
 G,2 A,G, | F,2 G,2 E,2 F,2 | G,4 C,2 C,2 | B,,2 C,2 D,2 D,2 | G,,4 | G,2 A,G, | F,2 G,2 E,2 F,2 | %7
 G,4 C,2 C,2 | B,,2 C,2 D,2 D,2 | G,,4 |1 G,2 F,2 | G,2 G,2 F,2 D,2 | G,4 C,2 C,2 | %13
 B,,2 E,2 D,2 D,2 | G,,4 x4 |] %15

